img/twitter.svg

<svg width="20" height="20" viewBox="0 0 20 20" fill="none" xmlns="http://www.w3.org/2000/svg">
<path d="M19.7025 4.11417C19.0067 4.4225 18.2592 4.63083 17.4733 4.725C18.2842 4.23983 18.8908 3.47622 19.18 2.57667C18.4182 3.02916 17.5844 3.34766 16.715 3.51833C16.1303 2.89405 15.3559 2.48027 14.5119 2.34123C13.668 2.20218 12.8017 2.34566 12.0477 2.74938C11.2936 3.15309 10.694 3.79447 10.3418 4.57392C9.9896 5.35337 9.9046 6.22729 10.1 7.06C8.5564 6.9825 7.04635 6.58129 5.66784 5.88242C4.28934 5.18355 3.07319 4.20263 2.09832 3.00333C1.76499 3.57833 1.57332 4.245 1.57332 4.955C1.57295 5.59416 1.73035 6.22354 2.03155 6.78728C2.33276 7.35102 2.76846 7.8317 3.29999 8.18667C2.68355 8.16705 2.08072 8.00049 1.54166 7.70083V7.75083C1.54159 8.64728 1.85168 9.51615 2.41931 10.21C2.98693 10.9038 3.77713 11.3799 4.65582 11.5575C4.08398 11.7123 3.48444 11.7351 2.90249 11.6242C3.1504 12.3955 3.63332 13.07 4.28363 13.5533C4.93394 14.0365 5.71909 14.3043 6.52916 14.3192C5.15402 15.3987 3.45573 15.9842 1.70749 15.9817C1.39781 15.9817 1.08839 15.9637 0.780823 15.9275C2.55539 17.0685 4.62111 17.674 6.73082 17.6717C13.8725 17.6717 17.7767 11.7567 17.7767 6.62667C17.7767 6.46 17.7725 6.29167 17.765 6.125C18.5244 5.57581 19.1799 4.89575 19.7008 4.11667L19.7025 4.11417Z" fill="#1D2947"/>
</svg>

<svg width="20" height="20" fill="none" xmlns="http://www.w3.org/2000/svg"><path d="M19.703 4.114a7.773 7.773 0 01-2.23.611 3.891 3.891 0 001.707-2.148 7.75 7.75 0 01-2.465.941A3.883 3.883 0 0010.1 7.06a11.024 11.024 0 01-8.002-4.057A3.883 3.883 0 003.3 8.186a3.872 3.872 0 01-1.758-.485v.05a3.883 3.883 0 003.114 3.806 3.91 3.91 0 01-1.754.067A3.885 3.885 0 006.53 14.32a7.79 7.79 0 01-5.748 1.608 10.98 10.98 0 005.95 1.745c7.142 0 11.046-5.915 11.046-11.045 0-.167-.005-.335-.012-.502a7.892 7.892 0 001.936-2.008l.002-.003z" fill="#1D2947"/></svg>
